X: 43026
T: Willy Wink's
R: polka
M: 2/4
K: Eminor
|:e|dG BA/B/|dG Ge|dG BA|GE Ee|
dG BA/B/|dG GB|Ac BA|GE E:|
|:F|G2 AG/A/|BE EF|GB AG|FD DF|
G2 AG/A/|Bg gc|BG AG/F/|GE E:|
|:f|g2 ag/a/|be ef|gb ag|fd dg|
bg af|ge dB|G2 AG/A/|BE E:|

